icons/new-model-32.svg

<svg id="icons" xmlns="http://www.w3.org/2000/svg" viewBox="0 0 32 32"><defs><style>.cls-1{fill:none;}</style></defs><rect class="cls-1" width="32" height="32"/><path d="M25,27v1H21v4H20V28H15.99994V27H20V23h1v4Zm1.49982-14.973a4.46136,4.46136,0,0,0-4.4494,3.97288H19V13H12.53906l-2.6134-2.6134a4.40692,4.40692,0,1,0-.72315.69091L12,13.875v5.41821L9.29486,21.9986a4.41326,4.41326,0,0,0-2.795-.9446,4.446,4.446,0,0,0,.00036,8.892,4.4698,4.4698,0,0,0,3.50165-7.24037L12.70728,20H19V16.99988h3.05042a4.47517,4.47517,0,1,0,4.4494-4.97288ZM6.50031,10.973A3.473,3.473,0,1,1,9.98231,7.5,3.4574,3.4574,0,0,1,6.50031,10.973Zm0,17.973a3.446,3.446,0,0,1,0-6.892,3.446,3.446,0,1,1,0,6.892ZM18,19H13V14h5v5Zm8.50031.973a3.473,3.473,0,1,1,3.473-3.473A3.4804,3.4804,0,0,1,26.50031,19.973Z"/></svg>

<svg xmlns="http://www.w3.org/2000/svg" viewBox="0 0 32 32"><path fill="none" d="M0 0h32v32H0z"/><path d="M25 27v1h-4v4h-1v-4h-4v-1h4v-4h1v4zm1.5-14.973A4.461 4.461 0 0 0 22.05 16H19v-3h-6.46l-2.614-2.613a4.407 4.407 0 1 0-.723.69L12 13.876v5.418L9.295 22a4.413 4.413 0 0 0-2.795-.945 4.446 4.446 0 0 0 0 8.892 4.47 4.47 0 0 0 3.502-7.24L12.707 20H19v-3h3.05a4.475 4.475 0 1 0 4.45-4.973zm-20-1.054A3.473 3.473 0 1 1 9.982 7.5 3.457 3.457 0 0 1 6.5 10.973zm0 17.973a3.446 3.446 0 0 1 0-6.892 3.446 3.446 0 1 1 0 6.892zM18 19h-5v-5h5v5zm8.5.973a3.473 3.473 0 1 1 3.473-3.473 3.48 3.48 0 0 1-3.473 3.473z"/></svg>
